X:3497
T:Country Dance. GHW.006
M:6/8
L:1/8
Q:120
S:George H.Watson,MS,Swanton Abbott,Norfolk,1850-1880
R:Jig
O:England
A:Norfolk
N:Pause sign  at end of A part -meaning Fine. Pause sign over second beat
N:of 6th. bar of B. DC at end of B
Z:vmp.Taz Tarry
K:D
F/G/|A>BA A>BA|d2 A A2 F/G/|A>BA A>BA|eeA AFG|ABA ABA|!d2A e2A|f>ed A
>dc|d2D D2||
z|f>ed f>ed|e2A A3|f>ed f>ed|!g2 e e3|{d/e/}f>ed f>ed| gfe a2 g|f>ed A>d
c
|d2D D3:||


